X:1
T:Miss Firzie’s Hornpipe of London
M:C|
L:1/8
R:Hornpipe
S:Clinton W. Bisbee (West Sumner, Me., August, 1904)
N:The inscription on the front cover indicates the that contents were
N:copied from the Dec. 25, 1864, music manuscript of Frank Richardson,
N: who lived in a town called Mt. Vernon, Me., later called Canton, Me..
Z:AK/Fiddler’s Companion
K:Bb
dc|B>fd>B A>ec>A|~B>cd>B F2 .B.A|G2e2 e>dc>B|A2f2 (3fgf (3edc|
B>fd>B A>ec>A|B>cd>B F2 .B.A|Ggfe (3ded (3cBA|BdB:|
|:{d}cB|Acf=e fdcB|Acf=e fagf|=egbg ecde|{g}f=efg (3fgf (3_edc|
d>fd>B (3Bdf (3bfd|c>d (3ecA (3FAc (3ecA|Bbag (3fgf (3edc|B>Fd>c B2:|]

